frontend/app/images/main/tickets.svg

<svg width="20" height="20" viewBox="0 0 20 20" fill="none" xmlns="http://www.w3.org/2000/svg">
<g clip-path="url(#clip0_224_1375)">
<path d="M13.3334 11.6666H14.5834V14.0166L16.6167 15.1916L15.9917 16.2749L13.3334 14.7416V11.6666ZM20.0001 14.1666C20.0001 15.7137 19.3855 17.1974 18.2915 18.2914C17.1976 19.3853 15.7138 19.9999 14.1667 19.9999C11.8417 19.9999 9.83342 18.6333 8.89175 16.6666H3.33341C2.89139 16.6666 2.46746 16.491 2.1549 16.1784C1.84234 15.8659 1.66675 15.4419 1.66675 14.9999V4.99992C1.66675 4.07492 2.40841 3.33325 3.33341 3.33325H16.6667C17.1088 3.33325 17.5327 3.50885 17.8453 3.82141C18.1578 4.13397 18.3334 4.55789 18.3334 4.99992V10.0833C19.3667 11.1333 20.0001 12.5749 20.0001 14.1666ZM8.33342 14.1666C8.33342 12.5333 9.00842 11.0583 10.0834 9.99992H3.33341V14.9999H8.39175C8.33341 14.7249 8.33342 14.4499 8.33342 14.1666ZM14.1667 9.99992C13.0617 9.99992 12.0019 10.4389 11.2205 11.2203C10.4391 12.0017 10.0001 13.0615 10.0001 14.1666C10.0001 15.2717 10.4391 16.3315 11.2205 17.1129C12.0019 17.8943 13.0617 18.3333 14.1667 18.3333C15.2718 18.3333 16.3316 17.8943 17.113 17.1129C17.8944 16.3315 18.3334 15.2717 18.3334 14.1666C18.3334 13.0615 17.8944 12.0017 17.113 11.2203C16.3316 10.4389 15.2718 9.99992 14.1667 9.99992ZM16.6667 6.66659V4.99992H3.33341V6.66659H16.6667Z" fill="#312D3A"/>
</g>
<defs>
<clipPath id="clip0_224_1375">
<rect width="20" height="20" fill="white"/>
</clipPath>
</defs>
</svg>

<svg width="20" height="20" fill="none" xmlns="http://www.w3.org/2000/svg"><g clip-path="url(#clip0_224_1375)"><path d="M13.333 11.667h1.25v2.35l2.034 1.175-.625 1.083-2.659-1.533v-3.075zm6.667 2.5A5.833 5.833 0 0114.167 20a5.854 5.854 0 01-5.275-3.333H3.333A1.667 1.667 0 011.667 15V5a1.66 1.66 0 011.666-1.667h13.334A1.667 1.667 0 0118.333 5v5.083A5.799 5.799 0 0120 14.167zm-11.667 0c0-1.634.675-3.109 1.75-4.167h-6.75v5h5.059c-.059-.275-.059-.55-.059-.833zM14.167 10a4.167 4.167 0 100 8.333 4.167 4.167 0 000-8.333zm2.5-3.333V5H3.333v1.667h13.334z" fill="#312D3A"/></g><defs><clipPath id="clip0_224_1375"><path fill="#fff" d="M0 0h20v20H0z"/></clipPath></defs></svg>
